packages/foundations/assets/icons/functional/images/arrows/arrow_left_24.svg

<svg width="24" height="24" viewBox="0 0 24 24" fill="none" xmlns="http://www.w3.org/2000/svg">
<g clip-path="url(#clip0_77_474)">
<path fill-rule="evenodd" clip-rule="evenodd" d="M20.0025 12C20.0025 11.437 19.5655 11 19.0025 11H7.40947L11.6895 6.71901C11.7877 6.6266 11.8661 6.51524 11.9201 6.39166C11.9741 6.26809 12.0024 6.13486 12.0035 6.00001C12.0035 5.56201 11.6285 5.00001 10.9735 5.00001C10.846 4.99933 10.7196 5.02379 10.6015 5.07201C10.4834 5.12023 10.3761 5.19125 10.2855 5.28101L4.28547 11.281C4.12377 11.4455 4.02563 11.662 4.00847 11.892L4.00247 12C3.97247 12.25 4.08047 12.515 4.28447 12.719L10.2845 18.719C10.4715 18.906 10.7525 19 10.9715 19C11.5345 19 12.0025 18.531 12.0025 18C12.0027 17.8652 11.9751 17.7317 11.9214 17.608C11.8677 17.4843 11.7891 17.373 11.6905 17.281L7.40947 13H19.0025C19.5655 13 20.0025 12.562 20.0025 12Z" fill="#1A1C1F"/>
</g>
<defs>
<clipPath id="clip0_77_474">
<rect width="24" height="24" fill="white"/>
</clipPath>
</defs>
</svg>

<svg xmlns="http://www.w3.org/2000/svg" width="24" height="24" fill="none"><g clip-path="url(#a)"><path fill="#1A1C1F" fill-rule="evenodd" d="M20.003 12c0-.563-.437-1-1-1H7.409l4.28-4.281A1 1 0 0 0 12.005 6c0-.438-.375-1-1.03-1a.97.97 0 0 0-.688.281l-6 6a.98.98 0 0 0-.278.611L4.002 12c-.03.25.078.515.282.719l6 6c.188.187.468.281.688.281.563 0 1.03-.469 1.03-1a.98.98 0 0 0-.312-.719L7.41 13h11.593c.563 0 1-.438 1-1" clip-rule="evenodd"/></g><defs><clipPath id="a"><path fill="#fff" d="M0 0h24v24H0z"/></clipPath></defs></svg>
